X: 39976
T: Three Crowns, The
R: reel
M: 4/4
K: Dmajor
|:efff Addd|fage fddd|eA A2 eA A2|efge fddd|
efff Addd|fage fddd|eA A2 A2 eA|A2 eA cddd:|
|:fdgd fddd|fdad fddd|eA A2 eA A2|efge fddd|
[1 fdgd fddd|fdad fddd|eA A2 A2 eA|A2 eA cddd:|
[2 efff Addd|fage fddd|eA A2 A2 eA|A2 eA cddd||

